packages/calcite-ui-icons/icons/square-hash-filled-24.svg

<?xml version="1.0" encoding="UTF-8"?><svg id="icons" xmlns="http://www.w3.org/2000/svg" viewBox="0 0 24 24"><defs><style>.cls-1{fill:none;}</style></defs><path d="M22,2H3c-.55231,0-1,.44769-1,1v19c0,.55231.44769,1,1,1h19c.55231,0,1-.44769,1-1V3c0-.55231-.44769-1-1-1ZM3,3h2.29297l-2.29297,2.29297v-2.29297ZM3,6.70703l3.70703-3.70703h2.58594l-6.29297,6.29297v-2.58594ZM3,10.70703l7.70703-7.70703h2.58594L3,13.29297v-2.58594ZM3,14.70703L14.70703,3h2.58594L3,17.29297v-2.58594ZM3,18.70703L18.70703,3h2.58594L3,21.29297v-2.58594ZM22,22h-2.29297l2.29297-2.29297v2.29297ZM22,18.29297l-3.70703,3.70703h-2.58594l6.29297-6.29297v2.58594ZM22,14.29297l-7.70703,7.70703h-2.58594l10.29297-10.29297v2.58594ZM22,10.29297l-11.70703,11.70703h-2.58594l14.29297-14.29297v2.58594ZM22,6.29297l-15.70703,15.70703h-2.58594L22,3.70703v2.58594Z"/><rect class="cls-1" width="24" height="24"/></svg>

<svg xmlns="http://www.w3.org/2000/svg" viewBox="0 0 24 24"><path d="M22 2H3a1 1 0 0 0-1 1v19a1 1 0 0 0 1 1h19a1 1 0 0 0 1-1V3a1 1 0 0 0-1-1zM3 3h2.293L3 5.293V3zm0 3.707L6.707 3h2.586L3 9.293V6.707zm0 4L10.707 3h2.586L3 13.293v-2.586zm0 4L14.707 3h2.586L3 17.293v-2.586zm0 4L18.707 3h2.586L3 21.293v-2.586zM22 22h-2.293L22 19.707V22zm0-3.707L18.293 22h-2.586L22 15.707v2.586zm0-4L14.293 22h-2.586L22 11.707v2.586zm0-4L10.293 22H7.707L22 7.707v2.586zm0-4L6.293 22H3.707L22 3.707v2.586z"/><path fill="none" d="M0 0h24v24H0z"/></svg>
